X:114
T:Unknown Glasgow Reel 5
S:Victoria Bar, Glasgow
Z:robin.beech@mcgill.ca
R:reel
M:4/4
L:1/8
K:A
ed | cBAc BAED | CEAc e2fg | aece aece | dcBA GBed |
cBAc BAED | CEAc e2fg | aece a2ec | A4 A2 ::
af | ecc/c/B c2ag | fdd/d/c d2af | ecc/c/B c2 af | ecBA B2af |
ecc/c/B c2ag | fdd/d/c d2af | ecAc dBGB | Aaec A2 :|
